src/img/svg/add-logo.svg

<?xml version="1.0" ?><svg enable-background="new 0 0 32 32" height="32px" id="svg2" version="1.1" viewBox="0 0 32 32" width="32px" xmlSpace="preserve" xmlns="http://www.w3.org/2000/svg" xmlnsCc="http://creativecommons.org/ns#" xmlnsDc="http://purl.org/dc/elements/1.1/" xmlnsInkscape="http://www.inkscape.org/namespaces/inkscape" xmlnsRdf="http://www.w3.org/1999/02/22-rdf-syntax-ns#" xmlnsSodipodi="http://sodipodi.sourceforge.net/DTD/sodipodi-0.dtd" xmlnsSvg="http://www.w3.org/2000/svg"><g id="background"><rect fill="none" height="32" width="32"/></g><g id="document_x5F_text_x5F_add"><path d="M24,14.059V5.584L18.414,0H0v32h24v-0.059c4.499-0.5,7.998-4.309,8-8.941C31.998,18.366,28.499,14.556,24,14.059z    M17.998,2.413L21.586,6h-3.588V2.413z M2,30V1.998h14v6.001h6v6.06c-1.752,0.194-3.352,0.89-4.652,1.941H4v2h11.517   c-0.412,0.616-0.743,1.289-0.994,2H4v2h10.059C14.022,22.329,14,22.661,14,23c0,2.829,1.308,5.351,3.349,7H2z M23,29.883   c-3.801-0.009-6.876-3.084-6.885-6.883c0.009-3.801,3.084-6.876,6.885-6.885c3.799,0.009,6.874,3.084,6.883,6.885   C29.874,26.799,26.799,29.874,23,29.883z M20,12H4v2h16V12z"/><g><polygon points="28,22 24.002,22 24.002,18 22,18 22,22 18,22 18,24 22,24 22,28 24.002,28 24.002,24 28,24"/></g></g></svg>

<svg width="32" height="32" viewBox="0 0 32 32" fill="none" xmlns="http://www.w3.org/2000/svg">
<path d="M24 14.059V5.584L18.414 0H0V32H24V31.941C28.499 31.441 31.998 27.632 32 23C31.998 18.366 28.499 14.556 24 14.059ZM17.998 2.413L21.586 6H17.998V2.413V2.413ZM2 30V1.998H16V7.999H22V14.059C20.248 14.253 18.648 14.949 17.348 16H4V18H15.517C15.105 18.616 14.774 19.289 14.523 20H4V22H14.059C14.022 22.329 14 22.661 14 23C14 25.829 15.308 28.351 17.349 30H2ZM23 29.883C19.199 29.874 16.124 26.799 16.115 23C16.124 19.199 19.199 16.124 23 16.115C26.799 16.124 29.874 19.199 29.883 23C29.874 26.799 26.799 29.874 23 29.883ZM20 12H4V14H20V12Z" fill="white"/>
<path d="M28 22H24.002V18H22V22H18V24H22V28H24.002V24H28V22Z" fill="white"/>
</svg>
